public/assets/img/icons/where04.svg

<svg width="80" height="80" viewBox="0 0 80 80" fill="none" xmlns="http://www.w3.org/2000/svg">
<g clip-path="url(#clip0)">
<path d="M66.3987 62.2665C67.4391 63.3022 69.121 63.3022 70.1614 62.2665L74.884 57.5585C75.9231 56.5133 75.9231 54.8252 74.884 53.7799L69.332 48.2212V33.3332C69.332 31.8604 68.1381 30.6665 66.6654 30.6665H59.9987C58.526 30.6665 57.332 31.8604 57.332 33.3332V36.2212L53.076 31.9652C58.4859 26.654 60.1461 18.5984 57.2771 11.581C54.4082 4.56357 47.5799 -0.0216675 39.9987 -0.0216675C32.4175 -0.0216675 25.5892 4.56357 22.7203 11.581C19.8513 18.5984 21.5115 26.654 26.9214 31.9652L5.10805 53.7772C4.06815 54.8226 4.06815 56.5118 5.10805 57.5572L9.82938 62.2665C10.8701 63.304 12.554 63.304 13.5947 62.2665L14.6614 61.1999V77.3332H9.33205C8.59567 77.3332 7.99871 77.9302 7.99871 78.6665C7.99871 79.4029 8.59567 79.9999 9.33205 79.9999H70.6654C71.4018 79.9999 71.9987 79.4029 71.9987 78.6665C71.9987 77.9302 71.4018 77.3332 70.6654 77.3332H65.332V61.1999L66.3987 62.2665ZM59.9987 33.3332H66.6654V45.5545L59.9987 38.8879V33.3332ZM73.0041 55.6692L68.288 60.3772L64.9467 57.0372L64.932 57.0265L44.628 36.7292C46.9366 36.1365 49.1095 35.1048 51.028 33.6905L73.0041 55.6692ZM23.9987 18.6665C23.9987 9.82998 31.1622 2.66654 39.9987 2.66654C48.8353 2.66654 55.9987 9.82998 55.9987 18.6665C55.9987 27.5031 48.8353 34.6665 39.9987 34.6665C31.1661 34.657 24.0083 27.4991 23.9987 18.6665ZM11.7134 60.3759L6.99471 55.6625L28.9667 33.6905C30.8852 35.1049 33.0581 36.1366 35.3667 36.7292L15.0654 57.0199L15.04 57.0452L11.7134 60.3759ZM34.6654 77.3332V71.9999C34.6654 69.0544 37.0532 66.6665 39.9987 66.6665C42.9442 66.6665 45.332 69.0544 45.332 71.9999V77.3332H34.6654ZM62.6654 77.3332H47.9987V71.9999C47.9987 67.5816 44.417 63.9999 39.9987 63.9999C35.5804 63.9999 31.9987 67.5816 31.9987 71.9999V77.3332H17.332V58.5332L38.608 37.2625C39.0694 37.2972 39.5294 37.3332 39.9987 37.3332C40.468 37.3332 40.932 37.2972 41.3894 37.2625L62.6654 58.5332V77.3332Z" fill="#333333"/>
<path d="M1.33333 79.9998H4C4.73638 79.9998 5.33333 79.4029 5.33333 78.6665C5.33333 77.9301 4.73638 77.3331 4 77.3331H1.33333C0.596954 77.3331 0 77.9301 0 78.6665C0 79.4029 0.596954 79.9998 1.33333 79.9998Z" fill="#333333"/>
<path d="M75.9993 79.9998H78.666C79.4024 79.9998 79.9993 79.4029 79.9993 78.6665C79.9993 77.9301 79.4024 77.3331 78.666 77.3331H75.9993C75.263 77.3331 74.666 77.9301 74.666 78.6665C74.666 79.4029 75.263 79.9998 75.9993 79.9998Z" fill="#333333"/>
<path d="M35.9987 23.333C35.9987 22.5967 35.4017 21.9997 34.6654 21.9997C33.929 21.9997 33.332 22.5967 33.332 23.333C33.4608 26.3218 35.7032 28.7935 38.6654 29.2117V29.333C38.6654 30.0694 39.2623 30.6664 39.9987 30.6664C40.7351 30.6664 41.332 30.0694 41.332 29.333V29.2117C44.2942 28.7935 46.5366 26.3218 46.6654 23.333C46.5366 20.3443 44.2942 17.8726 41.332 17.4544V10.8717C42.8158 11.2083 43.9011 12.4814 43.9987 13.9997C43.9987 14.7361 44.5956 15.333 45.332 15.333C46.0684 15.333 46.6654 14.7361 46.6654 13.9997C46.5366 11.0109 44.2942 8.53922 41.332 8.12105V7.99972C41.332 7.26334 40.7351 6.66638 39.9987 6.66638C39.2623 6.66638 38.6654 7.26334 38.6654 7.99972V8.12105C35.7032 8.53922 33.4608 11.0109 33.332 13.9997C33.4608 16.9885 35.7032 19.4602 38.6654 19.8784V26.4611C37.1816 26.1244 36.0963 24.8514 35.9987 23.333ZM43.9987 23.333C43.9011 24.8514 42.8158 26.1244 41.332 26.4611V20.205C42.8158 20.5417 43.9011 21.8147 43.9987 23.333ZM35.9987 13.9997C36.0963 12.4814 37.1816 11.2083 38.6654 10.8717V17.1277C37.1816 16.7911 36.0963 15.5181 35.9987 13.9997Z" fill="#333333"/>
<path d="M33.3333 45.3329C32.597 45.3329 32 45.9299 32 46.6663V59.9996C32 60.736 32.597 61.3329 33.3333 61.3329H46.6667C47.403 61.3329 48 60.736 48 59.9996V46.6663C48 45.9299 47.403 45.3329 46.6667 45.3329H33.3333ZM45.3333 51.9996H41.3333V47.9996H45.3333V51.9996ZM38.6667 47.9996V51.9996H34.6667V47.9996H38.6667ZM34.6667 54.6663H38.6667V58.6663H34.6667V54.6663ZM41.3333 58.6663V54.6663H45.3333V58.6663H41.3333Z" fill="#333333"/>
<path d="M42.6673 74.6668C43.4037 74.6668 44.0006 74.0699 44.0006 73.3335C44.0006 72.5971 43.4037 72.0002 42.6673 72.0002C41.9309 72.0002 41.334 72.5971 41.334 73.3335C41.334 74.0699 41.9309 74.6668 42.6673 74.6668Z" fill="#333333"/>
<path d="M12 18.6664C12 19.4028 12.597 19.9998 13.3333 19.9998H17.3333C18.0697 19.9998 18.6667 19.4028 18.6667 18.6664C18.6667 17.9301 18.0697 17.3331 17.3333 17.3331H13.3333C12.597 17.3331 12 17.9301 12 18.6664Z" fill="#333333"/>
<path d="M61.334 18.6664C61.334 19.4028 61.9309 19.9998 62.6673 19.9998H66.6673C67.4037 19.9998 68.0007 19.4028 68.0007 18.6664C68.0007 17.9301 67.4037 17.3331 66.6673 17.3331H62.6673C61.9309 17.3331 61.334 17.9301 61.334 18.6664Z" fill="#333333"/>
<path d="M19.7035 28.8453L16.2368 30.8453C15.8209 31.0817 15.5636 31.523 15.5625 32.0014C15.5615 32.4799 15.8168 32.9222 16.2317 33.1605C16.6466 33.3988 17.1574 33.3966 17.5702 33.1546L21.0368 31.1546C21.4528 30.9181 21.7101 30.4769 21.7112 29.9984C21.7122 29.52 21.4568 29.0776 21.0419 28.8393C20.627 28.601 20.1163 28.6033 19.7035 28.8453Z" fill="#333333"/>
<path d="M62.4281 4.17818L58.9614 6.17817C58.5455 6.41466 58.2882 6.85587 58.2871 7.33433C58.2861 7.81279 58.5415 8.25514 58.9563 8.49344C59.3712 8.73175 59.882 8.72949 60.2948 8.48751L63.7614 6.48751C64.1774 6.25103 64.4347 5.80981 64.4358 5.33135C64.4368 4.85289 64.1814 4.41055 63.7665 4.17224C63.3516 3.93393 62.8409 3.9362 62.4281 4.17818Z" fill="#333333"/>
<path d="M21.0368 6.17817L17.5702 4.17818C17.1574 3.9362 16.6466 3.93393 16.2317 4.17224C15.8168 4.41055 15.5615 4.85289 15.5625 5.33135C15.5636 5.80981 15.8209 6.25103 16.2368 6.48751L19.7035 8.48751C20.1163 8.72949 20.627 8.73175 21.0419 8.49344C21.4568 8.25514 21.7122 7.81279 21.7112 7.33433C21.7101 6.85587 21.4528 6.41466 21.0368 6.17817Z" fill="#333333"/>
</g>
<defs>
<clipPath id="clip0">
<rect width="80" height="80" fill="white"/>
</clipPath>
</defs>
</svg>

<svg width="80" height="80" fill="none" xmlns="http://www.w3.org/2000/svg"><g clip-path="url(#a)" fill="#333"><path d="M66.399 62.267a2.667 2.667 0 0 0 3.762 0l4.723-4.709a2.68 2.68 0 0 0 0-3.778l-5.552-5.559V33.333a2.667 2.667 0 0 0-2.667-2.666H60a2.667 2.667 0 0 0-2.667 2.666v2.888l-4.256-4.256a18.666 18.666 0 1 0-26.155 0L5.108 53.777a2.68 2.68 0 0 0 0 3.78l4.721 4.71a2.667 2.667 0 0 0 3.766 0L14.66 61.2v16.133H9.332a1.333 1.333 0 0 0 0 2.667h61.333a1.333 1.333 0 0 0 0-2.667h-5.333V61.2l1.067 1.066zm-6.4-28.934h6.666v12.221L60 38.888v-5.555zM73.004 55.67l-4.716 4.708-3.341-3.34-.015-.01-20.304-20.298a18.566 18.566 0 0 0 6.4-3.038l21.976 21.978zM24 18.667c0-8.837 7.163-16 16-16 8.836 0 16 7.163 16 16 0 8.836-7.164 16-16 16-8.833-.01-15.99-7.168-16-16zM11.713 60.376l-4.718-4.713L28.967 33.69a18.563 18.563 0 0 0 6.4 3.038L15.065 57.02l-.025.026-3.327 3.33zm22.952 16.957V72a5.333 5.333 0 1 1 10.667 0v5.333H34.665zm28 0H48V72a8 8 0 1 0-16 0v5.333H17.332v-18.8l21.276-21.27c.461.034.921.07 1.39.07.47 0 .934-.036 1.391-.07l21.276 21.27v18.8zM1.333 80H4a1.333 1.333 0 1 0 0-2.667H1.333a1.333 1.333 0 0 0 0 2.667zM76 80h2.666a1.333 1.333 0 1 0 0-2.667h-2.667A1.333 1.333 0 0 0 76 80z"/><path d="M35.999 23.333a1.333 1.333 0 0 0-2.667 0 6.207 6.207 0 0 0 5.333 5.879v.121a1.333 1.333 0 1 0 2.667 0v-.121a6.207 6.207 0 0 0 5.333-5.879 6.207 6.207 0 0 0-5.333-5.879v-6.582A3.433 3.433 0 0 1 43.999 14a1.333 1.333 0 1 0 2.666 0 6.207 6.207 0 0 0-5.333-5.879V8a1.333 1.333 0 1 0-2.667 0v.121A6.207 6.207 0 0 0 33.332 14a6.207 6.207 0 0 0 5.333 5.878v6.583A3.434 3.434 0 0 1 36 23.333zm8 0a3.434 3.434 0 0 1-2.667 3.128v-6.256a3.433 3.433 0 0 1 2.667 3.128zm-8-9.333a3.433 3.433 0 0 1 2.666-3.128v6.256A3.433 3.433 0 0 1 36 14zM33.333 45.333c-.736 0-1.333.597-1.333 1.333V60c0 .736.597 1.333 1.333 1.333h13.334c.736 0 1.333-.597 1.333-1.333V46.666c0-.736-.597-1.333-1.333-1.333H33.333zm12 6.667h-4v-4h4v4zm-6.666-4v4h-4v-4h4zm-4 6.666h4v4h-4v-4zm6.666 4v-4h4v4h-4zM42.667 74.667a1.333 1.333 0 1 0 0-2.667 1.333 1.333 0 0 0 0 2.667zM12 18.666c0 .737.597 1.334 1.333 1.334h4a1.333 1.333 0 0 0 0-2.667h-4c-.736 0-1.333.597-1.333 1.333zM61.334 18.666c0 .737.597 1.334 1.333 1.334h4a1.333 1.333 0 0 0 0-2.667h-4c-.736 0-1.333.597-1.333 1.333zM19.703 28.845l-3.466 2a1.333 1.333 0 1 0 1.333 2.31l3.467-2a1.333 1.333 0 1 0-1.334-2.31zM62.428 4.178l-3.467 2a1.333 1.333 0 1 0 1.334 2.31l3.466-2a1.333 1.333 0 1 0-1.333-2.31zM21.037 6.178l-3.467-2a1.333 1.333 0 1 0-1.333 2.31l3.466 2a1.333 1.333 0 1 0 1.334-2.31z"/></g><defs><clipPath id="a"><path fill="#fff" d="M0 0h80v80H0z"/></clipPath></defs></svg>
